X: 141
Q: "slow"
M: 3/4
L: 1/8
K: Bb
V: 1
|:\
{A}G4 (F/G//A//B//c//d//e//) | f3 g (fe/d/) |(c/d/e/d/) {d}c3 B | B6 :|
|:\
f2 g2 (a3/g//a//) | b4 f>d | e>f (e/f/g) Tf(e/d/) | Tc4 B2 |
{A}G4 (F/G//A//B//c//d//e//) | f3 g (fe/d/) |(c/d/e) {d}c3 B | B6 :|
V: 2 clef=bass middle=d
|:\
b4 f2 | b2 B2 z2 | "6"d2 B2 d2 | e2 E2 z2 |\
"6"d2 e2 "6"c2 | "6"dcBcdB | c2 A2 B2 |
"4"f2 "3"F2 B2 | d'4 "6"a2 | b2 B2 z2 | "6"d2 B2 d2 |\
e2 E2 z2 | "6"d2 B2 d2 | "6;5"e2 "4"f2 "3"F2 | B6 :|
|:\
"6"d2 g2 e2 | "6"d2 D2"6"=E2 | F4 f2 | "6 5;4 ="c'4 z2 |\
"6"d2 e2 "6"c2 | BABc"6"dB | c2 A2 B2 | "4"f2 "3"F2 B2 |
z2 z2 f2 | b2 B2 z2 | "6"d2 B2 d2 | e2 E2 z2 |\
"6"d2 B2 d2 | "6;5"e2 "4"f2 "3"F2 | B6 :|

